icons/circle/48/spark.svg

<svg xmlns="http://www.w3.org/2000/svg" viewBox="0 0 48 48">
 <defs>
  <linearGradient id="linearGradient3764" x1="1" x2="47" gradientUnits="userSpaceOnUse" gradientTransform="matrix(0,-1,1,0,-1.5e-6,47.999998)">
   <stop style="stop-color:#c8dae4;stop-opacity:1"/>
   <stop offset="1" style="stop-color:#d6e4eb;stop-opacity:1"/>
  </linearGradient>
 </defs>
 <g>
  <path d="m 36.31 5 c 5.859 4.062 9.688 10.831 9.688 18.5 c 0 12.426 -10.07 22.5 -22.5 22.5 c -7.669 0 -14.438 -3.828 -18.5 -9.688 c 1.037 1.822 2.306 3.499 3.781 4.969 c 4.085 3.712 9.514 5.969 15.469 5.969 c 12.703 0 23 -10.298 23 -23 c 0 -5.954 -2.256 -11.384 -5.969 -15.469 c -1.469 -1.475 -3.147 -2.744 -4.969 -3.781 z m 4.969 3.781 c 3.854 4.113 6.219 9.637 6.219 15.719 c 0 12.703 -10.297 23 -23 23 c -6.081 0 -11.606 -2.364 -15.719 -6.219 c 4.16 4.144 9.883 6.719 16.219 6.719 c 12.703 0 23 -10.298 23 -23 c 0 -6.335 -2.575 -12.06 -6.719 -16.219 z" style="opacity:0.05"/>
  <path d="m 41.28 8.781 c 3.712 4.085 5.969 9.514 5.969 15.469 c 0 12.703 -10.297 23 -23 23 c -5.954 0 -11.384 -2.256 -15.469 -5.969 c 4.113 3.854 9.637 6.219 15.719 6.219 c 12.703 0 23 -10.298 23 -23 c 0 -6.081 -2.364 -11.606 -6.219 -15.719 z" style="opacity:0.1"/>
  <path d="m 31.25 2.375 c 8.615 3.154 14.75 11.417 14.75 21.13 c 0 12.426 -10.07 22.5 -22.5 22.5 c -9.708 0 -17.971 -6.135 -21.12 -14.75 a 23 23 0 0 0 44.875 -7 a 23 23 0 0 0 -16 -21.875 z" style="opacity:0.2"/>
 </g>
 <g>
  <path d="m 24 1 c 12.703 0 23 10.297 23 23 c 0 12.703 -10.297 23 -23 23 -12.703 0 -23 -10.297 -23 -23 0 -12.703 10.297 -23 23 -23 z" style="fill:url(#linearGradient3764);fill-opacity:1"/>
 </g>
 <g>
  <path d="m 40.03 7.531 c 3.712 4.084 5.969 9.514 5.969 15.469 0 12.703 -10.297 23 -23 23 c -5.954 0 -11.384 -2.256 -15.469 -5.969 4.178 4.291 10.01 6.969 16.469 6.969 c 12.703 0 23 -10.298 23 -23 0 -6.462 -2.677 -12.291 -6.969 -16.469 z" style="opacity:0.1"/>
 </g>
 <g transform="translate(-0.49999973,-0.49984944)">
  <g transform="matrix(1.6639197,0,0,1.6639197,-12.490361,-10.963127)" style="fill:#000;opacity:0.1;fill-opacity:1">
   <g transform="translate(10.543734,9.5664429)">
    <path d="m 16.5 3.344 c -8.731 1.076 -12.364 5.485 -12 10.938 0 3.571 3.358 6.469 7.5 6.469 c 4.142 0 7.5 -2.898 7.5 -6.469 c 0 -3.106 -2.55 -5.721 -5.938 -6.344 0.47 -1.233 1.358 -2.673 2.938 -4.594 z" style="stroke:none"/>
   </g>
  </g>
  <g transform="matrix(1.6639197,0,0,1.6639197,-13.490361,-11.962825)">
   <g transform="translate(10.543734,9.5664429)">
    <path d="m 16.5 3.344 c -8.731 1.076 -12.364 5.485 -12 10.938 c 0 3.571 3.358 6.469 7.5 6.469 4.142 0 7.5 -2.898 7.5 -6.469 0 -3.106 -2.55 -5.721 -5.937 -6.344 0.47 -1.233 1.358 -2.673 2.937 -4.594 z" style="fill:#fec355;fill-opacity:1;stroke:none"/>
   </g>
   <path d="m 24.524 20.692 c -4.802 0.592 -6.8 3.02 -6.6 6.02 0 1.964 1.847 3.558 4.125 3.558 2.278 0 4.125 -1.594 4.125 -3.558 0 -1.708 -1.403 -3.146 -3.266 -3.489 0.259 -0.678 0.747 -1.47 1.616 -2.527 z" style="fill:#eb7413;fill-opacity:1;stroke:none"/>
  </g>
 </g>
</svg>

<svg xmlns="http://www.w3.org/2000/svg" viewBox="0 0 48 48">
  <defs>
    <linearGradient id="a" x1="1" x2="47" gradientUnits="userSpaceOnUse" gradientTransform="rotate(-90 24 24)">
      <stop stop-color="#c8dae4"/>
      <stop offset="1" stop-color="#d6e4eb"/>
    </linearGradient>
  </defs>
  <path d="M36.31 5c5.859 4.062 9.688 10.831 9.688 18.5 0 12.426-10.07 22.5-22.5 22.5-7.669 0-14.438-3.828-18.5-9.688a23.24 23.24 0 0 0 3.781 4.969 22.923 22.923 0 0 0 15.469 5.969c12.703 0 23-10.298 23-23a22.92 22.92 0 0 0-5.969-15.469A23.216 23.216 0 0 0 36.31 5zm4.969 3.781A22.911 22.911 0 0 1 47.498 24.5c0 12.703-10.297 23-23 23a22.909 22.909 0 0 1-15.719-6.219C12.939 45.425 18.662 48 24.998 48c12.703 0 23-10.298 23-23 0-6.335-2.575-12.06-6.719-16.219z" opacity=".05"/>
  <path d="M41.28 8.781a22.923 22.923 0 0 1 5.969 15.469c0 12.703-10.297 23-23 23A22.92 22.92 0 0 1 8.78 41.281 22.911 22.911 0 0 0 24.499 47.5c12.703 0 23-10.298 23-23A22.909 22.909 0 0 0 41.28 8.781z" opacity=".1"/>
  <path d="M31.25 2.375C39.865 5.529 46 13.792 46 23.505c0 12.426-10.07 22.5-22.5 22.5-9.708 0-17.971-6.135-21.12-14.75a23 23 0 0 0 44.875-7 23 23 0 0 0-16-21.875z" opacity=".2"/>
  <path d="M24 1c12.703 0 23 10.297 23 23S36.703 47 24 47 1 36.703 1 24 11.297 1 24 1z" fill="url(#a)"/>
  <g>
    <path d="M40.03 7.531A22.922 22.922 0 0 1 45.999 23c0 12.703-10.297 23-23 23A22.92 22.92 0 0 1 7.53 40.031C11.708 44.322 17.54 47 23.999 47c12.703 0 23-10.298 23-23 0-6.462-2.677-12.291-6.969-16.469z" opacity=".1"/>
  </g>
  <g>
    <path d="M32.008 10.019c-14.527 1.79-20.572 9.127-19.967 18.2 0 5.942 5.588 10.764 12.48 10.764S37 34.16 37 28.219c0-5.168-4.243-9.52-9.88-10.556.782-2.052 2.26-4.448 4.888-7.644z" opacity=".1"/>
    <path d="M31.008 9.02c-14.527 1.79-20.572 9.126-19.967 18.2 0 5.941 5.588 10.763 12.48 10.763S36 33.161 36 27.22c0-5.168-4.243-9.52-9.879-10.556.782-2.051 2.26-4.447 4.887-7.644z" fill="#fec355"/>
    <path d="M26.816 21.967c-7.99.985-11.315 5.025-10.982 10.017 0 3.268 3.073 5.92 6.863 5.92 3.79 0 6.864-2.652 6.864-5.92 0-2.842-2.334-5.235-5.434-5.805.43-1.129 1.243-2.446 2.689-4.205z" fill="#eb7413"/>
  </g>
</svg>
